tools/download-figma-icons/icons/outlined-large/cloud-disconnect.svg

<svg width="64" height="64" viewBox="0 0 64 64" fill="none" xmlns="http://www.w3.org/2000/svg">
<path fill-rule="evenodd" clip-rule="evenodd" d="M13.7 22.771C15.03 13.811 22.79 7 32 7C38.261 7 43.91 10.101 47.29 15.061L45.11 17.23C42.33 12.79 37.44 10 32 10C23.86 10 17.07 16.36 16.54 24.471L16.431 26.07L14.84 25.86C14.41 25.801 13.979 25.771 13.5 25.771C7.71 25.771 3 30.48 3 36.271C3 42.061 7.71 46.771 13.5 46.771H15.58L12.61 49.74C5.58 49.28 0 43.421 0 36.271C0 28.83 6.06 22.771 13.5 22.771H13.7ZM24.06 46.7706H48.5C55.39 46.7706 61 41.1606 61 34.2706C61 27.5606 55.681 22.0706 49.04 21.7906L24.06 46.7706ZM57.54 13.2906L51.71 19.1206C58.729 20.5906 64 26.8206 64 34.2706C64 42.8206 57.05 49.7706 48.5 49.7706H21.06L14.54 56.2906C14.25 56.5906 13.86 56.7306 13.479 56.7306C13.09 56.7306 12.71 56.5906 12.42 56.2906C11.83 55.7106 11.83 54.7606 12.42 54.1706L16.82 49.7706L46.521 20.0706L48.81 17.7806L55.42 11.1706C56 10.5906 56.95 10.5906 57.54 11.1706C58.12 11.7606 58.12 12.7106 57.54 13.2906Z" fill="black"/>
</svg>

<svg xmlns="http://www.w3.org/2000/svg" width="64" height="64" fill="none" viewBox="0 0 64 64"><path fill="currentColor" fill-rule="evenodd" d="M13.7 22.771C15.03 13.811 22.79 7 32 7a18.45 18.45 0 0 1 15.29 8.061l-2.18 2.169C42.33 12.79 37.44 10 32 10c-8.14 0-14.93 6.36-15.46 14.471l-.109 1.599-1.591-.21a10 10 0 0 0-1.34-.089c-5.79 0-10.5 4.709-10.5 10.5 0 5.79 4.71 10.5 10.5 10.5h2.08l-2.97 2.969C5.58 49.28 0 43.421 0 36.271c0-7.441 6.06-13.5 13.5-13.5zm10.36 24H48.5c6.89 0 12.5-5.61 12.5-12.5 0-6.71-5.319-12.2-11.96-12.48zm33.48-33.48-5.83 5.83C58.729 20.59 64 26.82 64 34.27c0 8.55-6.95 15.5-15.5 15.5H21.06l-6.52 6.52c-.29.3-.68.44-1.061.44a1.45 1.45 0 0 1-1.059-.44 1.49 1.49 0 0 1 0-2.12l4.4-4.4 29.701-29.7 2.289-2.29 6.61-6.61c.58-.58 1.53-.58 2.12 0 .58.59.58 1.54 0 2.12" clip-rule="evenodd"/></svg>
